X:14
T:Spotted Pony
Z:John Chambers, modified by Tom Novelli
S:Sessions
M:C|
L:1/8
K:D
|: "D"D2DD "A7"E2EE | "D"F2FF "G"GFG2 | "D"ABde fede | f2a2 "A7"e4 |
|  "D"D2DD "A7"E2EE | "D"F2FF "G"GFG2 | "D"ABde fedB | "A7"AFE2 "D"D4 :|
|: "D"f2a2 f4 | "G"efed B4 | "D"ABde fede | f2a2 "A7"e4 |
|  "D"f2a2 f4 | "G"efed B4 | "D"ABde fedB | "A7"AFE2 "D"D4 :|
% ----------------------------------------------------------------------------
